src/assets/images/voice.svg

<svg fill="none" height="40" viewBox="0 0 40 40" width="40" xmlns="http://www.w3.org/2000/svg"><path d="m31.3176 12.25c-.3315 0-.6494.1317-.8839.3661-.2344.2344-.3661.5524-.3661.8839v3.57c0 5.05-4.5175 9.1575-10.0675 9.1575s-10.06748-4.11-10.06748-9.1575v-3.71c0-.3315-.1317-.6495-.36612-.8839s-.55236-.3661-.88388-.3661-.64947.1317-.88389.3661-.36611.5524-.36611.8839v3.71c0 6.1675 5.20498 11.18 11.74498 11.58v4.355h-5.2075c-.63 0-1.14.56-1.14 1.2525 0 .69.51 1.2475 1.14 1.2475h12.4625c.6275 0 1.14-.5575 1.14-1.2475 0-.6925-.5125-1.2525-1.14-1.2525h-4.755v-4.4325c6.1325-.7725 10.89-5.605 10.89-11.5025v-3.57c0-.6925-.5575-1.25-1.25-1.25z" fill="#5a57c6"/><path d="m15.4181 3.7151c1.2683-1.26867 2.9879-1.98255 4.7818-1.98512 1.7946.0014 3.5153.71478 4.7846 1.98358 1.2694 1.26902 1.9833 2.98993 1.9851 4.78488v8.24276.0007c-.0025 1.7946-.7167 3.515-1.9859 4.7838-1.269 1.2686-2.9894 1.9822-4.7838 1.9843-1.7939-.0026-3.5135-.7165-4.7818-1.9851-1.2683-1.2688-1.9817-2.9889-1.9835-4.7829v-8.24403c.0018-1.79403.7152-3.51409 1.9835-4.78287z" fill="#edecff" stroke="#5a57c6" stroke-width="2"/><path d="m13 12h14v1.9181c-.0026 2.4084-.7414 4.717-2.0543 6.4196s-3.0927 2.66-4.949 2.6623c-3.8572 0-6.9967-4.0733-6.9967-9.0819z" fill="#5a57c6"/></svg>

<svg width="40" height="40" viewBox="0 0 40 40" fill="none" xmlns="http://www.w3.org/2000/svg">
<path d="M31.3176 12.25C30.9861 12.25 30.6682 12.3817 30.4337 12.6161C30.1993 12.8505 30.0676 13.1685 30.0676 13.5V17.07C30.0676 22.12 25.5501 26.2275 20.0001 26.2275C14.4501 26.2275 9.93262 22.1175 9.93262 17.07V13.36C9.93262 13.0285 9.80092 12.7105 9.5665 12.4761C9.33208 12.2417 9.01414 12.11 8.68262 12.11C8.3511 12.11 8.03315 12.2417 7.79873 12.4761C7.56431 12.7105 7.43262 13.0285 7.43262 13.36V17.07C7.43262 23.2375 12.6376 28.25 19.1776 28.65V33.005H13.9701C13.3401 33.005 12.8301 33.565 12.8301 34.2575C12.8301 34.9475 13.3401 35.505 13.9701 35.505H26.4326C27.0601 35.505 27.5726 34.9475 27.5726 34.2575C27.5726 33.565 27.0601 33.005 26.4326 33.005H21.6776V28.5725C27.8101 27.8 32.5676 22.9675 32.5676 17.07V13.5C32.5676 12.8075 32.0101 12.25 31.3176 12.25Z" fill="#5A57C6"/>
<path d="M15.4181 3.7151C16.6864 2.44643 18.406 1.73255 20.1999 1.72998C21.9945 1.73138 23.7152 2.44476 24.9845 3.71356C26.2539 4.98258 26.9678 6.70349 26.9696 8.49844L26.9696 16.7412C26.9696 16.7414 26.9696 16.7417 26.9696 16.7419C26.9671 18.5365 26.2529 20.2569 24.9837 21.5257C23.7147 22.7943 21.9943 23.5079 20.1999 23.51C18.406 23.5074 16.6864 22.7935 15.4181 21.5249C14.1498 20.2561 13.4364 18.536 13.4346 16.742V8.49797C13.4364 6.70394 14.1498 4.98388 15.4181 3.7151Z" fill="#EDECFF" stroke="#5A57C6" stroke-width="2"/>
<path d="M13 12H27V13.9181C26.9974 16.3265 26.2586 18.6351 24.9457 20.3377C23.6328 22.0403 21.853 22.9977 19.9967 23C16.1395 23 13 18.9267 13 13.9181V12Z" fill="#5A57C6"/>
</svg>
